Numix/64/mimetypes/text-x-copying.svg

<?xml version="1.0" encoding="UTF-8" standalone="no"?>
<svg
   xmlns:dc="http://purl.org/dc/elements/1.1/"
   xmlns:cc="http://creativecommons.org/ns#"
   xmlns:rdf="http://www.w3.org/1999/02/22-rdf-syntax-ns#"
   xmlns:svg="http://www.w3.org/2000/svg"
   xmlns="http://www.w3.org/2000/svg"
   xmlns:sodipodi="http://sodipodi.sourceforge.net/DTD/sodipodi-0.dtd"
   xmlns:inkscape="http://www.inkscape.org/namespaces/inkscape"
   width="64px"
   height="64px"
   viewBox="0 0 64 64"
   version="1.1"
   id="svg2"
   inkscape:version="0.91 r13725"
   sodipodi:docname="text-x-copying.svg">
  <metadata
     id="metadata19">
    <rdf:RDF>
      <cc:Work
         rdf:about="">
        <dc:format>image/svg+xml</dc:format>
        <dc:type
           rdf:resource="http://purl.org/dc/dcmitype/StillImage" />
      </cc:Work>
    </rdf:RDF>
  </metadata>
  <defs
     id="defs17" />
  <sodipodi:namedview
     pagecolor="#ffffff"
     bordercolor="#666666"
     borderopacity="1"
     objecttolerance="10"
     gridtolerance="10"
     guidetolerance="10"
     inkscape:pageopacity="0"
     inkscape:pageshadow="2"
     inkscape:window-width="1920"
     inkscape:window-height="1013"
     id="namedview15"
     showgrid="false"
     inkscape:zoom="3.6875"
     inkscape:cx="-2.9830508"
     inkscape:cy="32"
     inkscape:window-x="0"
     inkscape:window-y="27"
     inkscape:window-maximized="1"
     inkscape:current-layer="svg2" />
  <path
     inkscape:connector-curvature="0"
     id="path5"
     d="M 10.671875,0 C 9.296875,0 8,1.355469 8,2.789062 L 8,61.210938 C 8,62.566406 9.375,64 10.671875,64 l 42.65625,0 C 54.625,64 56,62.566406 56,61.210938 L 56,18 38,0 Z m 0,0"
     style="fill:#dcdcdc;fill-opacity:1;fill-rule:nonzero;stroke:none" />
  <path
     inkscape:connector-curvature="0"
     id="path7"
     d="m 42,18 14,14 0,-14 z m 0,0"
     style="fill:#000000;fill-opacity:0.19607801;fill-rule:nonzero;stroke:none" />
  <path
     inkscape:connector-curvature="0"
     id="path9"
     d="M 38,0 55.984375,18 40.757812,18 C 39.410156,18 38,16.574219 38,15.226562 Z m 0,0"
     style="fill:#ffffff;fill-opacity:0.39215698;fill-rule:nonzero;stroke:none" />
  <path
     inkscape:connector-curvature="0"
     id="path11"
     d="M 32,24 C 24.265625,24 18,30.269531 18,37.996094 18,45.730469 24.265625,52 32,52 39.734375,52 46,45.730469 46,37.996094 46,30.269531 39.734375,24 32,24 Z m 0,2.796875 c 6.183594,0 11.195312,5.011719 11.195312,11.199219 0,6.1875 -5.011718,11.207031 -11.195312,11.207031 -6.183594,0 -11.195312,-5.019531 -11.195312,-11.207031 0,-6.1875 5.011718,-11.199219 11.195312,-11.199219 z m 0,0"
     style="fill:#888888;fill-opacity:1;fill-rule:nonzero;stroke:none" />
  <path
     inkscape:connector-curvature="0"
     id="path13"
     d="m 32.222656,32.484375 c -1.46875,0 -2.601562,0.492187 -3.40625,1.476563 -0.800781,0.976562 -1.203125,2.335937 -1.203125,4.085937 0,3.648437 1.53125,5.46875 4.609375,5.46875 1.285156,0 2.851563,-0.285156 4.683594,-0.859375 l 0,2.902344 c -1.503906,0.558594 -3.191406,0.839844 -5.046875,0.839844 -2.671875,0 -4.714844,-0.714844 -6.132813,-2.160157 -1.417968,-1.441406 -2.125,-3.511719 -2.125,-6.210937 0,-1.695313 0.34375,-3.191406 1.042969,-4.460938 0.695313,-1.28125 1.6875,-2.265625 2.992188,-2.9375 1.304687,-0.6875 2.835937,-1.035156 4.585937,-1.035156 1.785156,0 3.574219,0.386719 5.378906,1.15625 l -1.261718,2.816406 C 35.65625,33.277344 34.960938,33.023438 34.273438,32.804688 33.574219,32.589844 32.894531,32.484375 32.222656,32.484375"
     style="fill:#888888;fill-opacity:1;fill-rule:nonzero;stroke:none" />
</svg>

<svg xmlns="http://www.w3.org/2000/svg" xmlns:xlink="http://www.w3.org/1999/xlink" width="64px" height="64px" viewBox="0 0 64 64" version="1.1">
<g id="surface1">
<path style=" stroke:none;fill-rule:nonzero;fill:rgb(86.27451%,86.27451%,86.27451%);fill-opacity:1;" d="M 10.671875 0 C 9.296875 0 8 1.355469 8 2.789062 L 8 61.210938 C 8 62.566406 9.375 64 10.671875 64 L 53.328125 64 C 54.625 64 56 62.566406 56 61.210938 L 56 18 L 38 0 Z M 10.671875 0 "/>
<path style=" stroke:none;fill-rule:nonzero;fill:rgb(0%,0%,0%);fill-opacity:0.196078;" d="M 42 18 L 56 32 L 56 18 Z M 42 18 "/>
<path style=" stroke:none;fill-rule:nonzero;fill:rgb(100%,100%,100%);fill-opacity:0.392157;" d="M 38 0 L 55.984375 18 L 40.757812 18 C 39.410156 18 38 16.574219 38 15.226562 Z M 38 0 "/>
<path style=" stroke:none;fill-rule:nonzero;fill:rgb(53.333333%,53.333333%,53.333333%);fill-opacity:1;" d="M 32 24 C 24.265625 24 18 30.269531 18 37.996094 C 18 45.730469 24.265625 52 32 52 C 39.734375 52 46 45.730469 46 37.996094 C 46 30.269531 39.734375 24 32 24 Z M 32 26.796875 C 38.183594 26.796875 43.195312 31.808594 43.195312 37.996094 C 43.195312 44.183594 38.183594 49.203125 32 49.203125 C 25.816406 49.203125 20.804688 44.183594 20.804688 37.996094 C 20.804688 31.808594 25.816406 26.796875 32 26.796875 Z M 32 26.796875 "/>
<path style=" stroke:none;fill-rule:nonzero;fill:rgb(53.333333%,53.333333%,53.333333%);fill-opacity:1;" d="M 32.222656 32.484375 C 30.753906 32.484375 29.621094 32.976562 28.816406 33.960938 C 28.015625 34.9375 27.613281 36.296875 27.613281 38.046875 C 27.613281 41.695312 29.144531 43.515625 32.222656 43.515625 C 33.507812 43.515625 35.074219 43.230469 36.90625 42.65625 L 36.90625 45.558594 C 35.402344 46.117188 33.714844 46.398438 31.859375 46.398438 C 29.1875 46.398438 27.144531 45.683594 25.726562 44.238281 C 24.308594 42.796875 23.601562 40.726562 23.601562 38.027344 C 23.601562 36.332031 23.945312 34.835938 24.644531 33.566406 C 25.339844 32.285156 26.332031 31.300781 27.636719 30.628906 C 28.941406 29.941406 30.472656 29.59375 32.222656 29.59375 C 34.007812 29.59375 35.796875 29.980469 37.601562 30.75 L 36.339844 33.566406 C 35.65625 33.277344 34.960938 33.023438 34.273438 32.804688 C 33.574219 32.589844 32.894531 32.484375 32.222656 32.484375 "/>
</g>
</svg>
